32x32/places/folder-cloud.svg

<svg xmlns="http://www.w3.org/2000/svg" width="32" height="32" version="1">
 <rect style="opacity:0.2" width="28" height="18" x="2" y="11" rx="1.4" ry="1.4"/>
 <path style="fill:#f4f4f7" d="M 2,22.6 C 2,23.376 2.6244,24 3.4,24 H 28.6 C 29.376,24 30,23.376 30,22.6 V 7.4 C 30,6.6244 29.376,6 28.6,6 H 16 C 13.9,6 13.2,3 11.1,3 H 3.4 C 2.6244,3 2,3.6244 2,4.4"/>
 <rect style="opacity:0.2" width="28" height="18" x="2" y="9" rx="1.4" ry="1.4"/>
 <rect style="fill:#f4f4f7" width="24" height="11" x="4" y="8" rx="1.4" ry="1.4"/>
 <rect style="fill:#323a41" width="28" height="18" x="2" y="10" rx="1.4" ry="1.4"/>
 <path style="opacity:0.1;fill:#f4f4f7" d="M 3.4004,3 C 2.6248,3 2,3.6248 2,4.4004 V 5.4004 C 2,4.6248 2.6248,4 3.4004,4 H 11.1 C 13.2,4 13.9,7 16,7 H 28.6 C 29.375,7 30,7.6248 30,8.4004 V 7.4004 C 30,6.6248 29.375,6 28.6,6 H 16 C 13.9,6 13.2,3 11.1,3 Z"/>
 <path style="fill:#f4f4f7" d="M 15.6,14 A 4,4.5455 0 0 0 11.814,17.089 3.2,3.6364 0 0 0 10,20.364 3.2,3.6364 0 0 0 13.2,24 3.2,3.6364 0 0 0 15.327,23.075 4,4.5455 0 0 0 15.6,23.091 4,4.5455 0 0 0 17.291,22.659 3.2,3.6364 0 0 0 18.801,23.091 3.2,3.6364 0 0 0 22,19.455 3.2,3.6364 0 0 0 18.8,15.819 3.2,3.6364 0 0 0 18.794,15.819 4,4.5455 0 0 0 15.599,14 Z"/>
</svg>

<svg xmlns="http://www.w3.org/2000/svg" width="32" height="32" version="1"><rect style="opacity:.2" width="28" height="18" x="2" y="11" rx="1.4" ry="1.4"/><path style="fill:#f4f4f7" d="M2 22.6c0 .776.624 1.4 1.4 1.4h25.2c.776 0 1.4-.624 1.4-1.4V7.4c0-.776-.624-1.4-1.4-1.4H16c-2.1 0-2.8-3-4.9-3H3.4C2.624 3 2 3.624 2 4.4"/><rect style="opacity:.2" width="28" height="18" x="2" y="9" rx="1.4" ry="1.4"/><rect style="fill:#f4f4f7" width="24" height="11" x="4" y="8" rx="1.4" ry="1.4"/><rect style="fill:#323a41" width="28" height="18" x="2" y="10" rx="1.4" ry="1.4"/><path style="opacity:.1;fill:#f4f4f7" d="M3.4 3C2.625 3 2 3.625 2 4.4v1C2 4.625 2.625 4 3.4 4h7.7c2.1 0 2.8 3 4.9 3h12.6c.775 0 1.4.625 1.4 1.4v-1c0-.775-.625-1.4-1.4-1.4H16c-2.1 0-2.8-3-4.9-3z"/><path style="fill:#f4f4f7" d="M15.6 14a4 4.545 0 0 0-3.786 3.089A3.2 3.636 0 0 0 10 20.364 3.2 3.636 0 0 0 13.2 24a3.2 3.636 0 0 0 2.127-.925 4 4.545 0 0 0 .273.016 4 4.545 0 0 0 1.691-.432 3.2 3.636 0 0 0 1.51.432A3.2 3.636 0 0 0 22 19.455a3.2 3.636 0 0 0-3.2-3.636 3.2 3.636 0 0 0-.006 0A4 4.545 0 0 0 15.599 14z"/></svg>
